X:1
T:Just as I am
M:3/4
L:1/8
Z: Contributed 2018-03-07 20:57:43 by Craig Sandberg mcraigs_99@yahoo.com
K:D
DE | F4 F2 | A3 G F2 | E3 F G2 | F4 A2 | A2 E2 F2 | G4 B2 | B4 A2 | F4 DE |
F4 F2 | A3 G F2 | B4 B2 | d3 c B | A4 A2 | A3 G F2 | E6 | A6 | F6 |

